assets/icons/view-icon.svg

<svg width="16" height="16" viewBox="0 0 16 16" fill="none" xmlns="http://www.w3.org/2000/svg">
<path fill-rule="evenodd" clip-rule="evenodd" d="M9.66675 12.3333H12.3334V9.66663H9.66675V12.3333ZM3.66675 12.3333H6.33341V9.66663H3.66675V12.3333ZM9.66675 6.33329H12.3334V3.66663H9.66675V6.33329ZM3.66675 6.33329H6.33341V3.66663H3.66675V6.33329ZM8.86206 13.1381C8.98708 13.2631 9.1566 13.3333 9.33342 13.3333H12.6667C12.8436 13.3333 13.0131 13.2631 13.1381 13.1381C13.2631 13.013 13.3334 12.8434 13.3334 12.6666V9.33329C13.3334 9.15648 13.2631 8.98688 13.1381 8.86186C13.0131 8.73683 12.8436 8.66663 12.6667 8.66663H9.33342C9.1566 8.66663 8.98708 8.73683 8.86206 8.86186C8.73704 8.98688 8.66675 9.15648 8.66675 9.33329V12.6666C8.66675 12.8434 8.73704 13.013 8.86206 13.1381ZM2.86206 13.1381C2.98708 13.2631 3.1566 13.3333 3.33341 13.3333H6.66675C6.84356 13.3333 7.01308 13.2631 7.1381 13.1381C7.26313 13.013 7.33342 12.8434 7.33342 12.6666V9.33329C7.33342 9.15648 7.26313 8.98688 7.1381 8.86186C7.01308 8.73683 6.84356 8.66663 6.66675 8.66663H3.33341C3.1566 8.66663 2.98708 8.73683 2.86206 8.86186C2.73704 8.98688 2.66675 9.15648 2.66675 9.33329V12.6666C2.66675 12.8434 2.73704 13.013 2.86206 13.1381ZM8.86206 7.13806C8.98708 7.26309 9.1566 7.33329 9.33342 7.33329H12.6667C12.8436 7.33329 13.0131 7.26309 13.1381 7.13806C13.2631 7.01304 13.3334 6.84344 13.3334 6.66663V3.33329C13.3334 3.15648 13.2631 2.98688 13.1381 2.86186C13.0131 2.73683 12.8436 2.66663 12.6667 2.66663H9.33342C9.1566 2.66663 8.98708 2.73683 8.86206 2.86186C8.73704 2.98688 8.66675 3.15648 8.66675 3.33329V6.66663C8.66675 6.84344 8.73704 7.01304 8.86206 7.13806ZM2.86206 7.13806C2.98708 7.26309 3.1566 7.33329 3.33341 7.33329H6.66675C6.84356 7.33329 7.01308 7.26309 7.1381 7.13806C7.26313 7.01304 7.33342 6.84344 7.33342 6.66663V3.33329C7.33342 3.15648 7.26313 2.98688 7.1381 2.86186C7.01308 2.73683 6.84356 2.66663 6.66675 2.66663H3.33341C3.1566 2.66663 2.98708 2.73683 2.86206 2.86186C2.73704 2.98688 2.66675 3.15648 2.66675 3.33329V6.66663C2.66675 6.84344 2.73704 7.01304 2.86206 7.13806Z" fill="#808089"/>
</svg>

<svg xmlns="http://www.w3.org/2000/svg" width="16" height="16" fill="none" viewBox="0 0 16 16" data-c="1"><path fill="#808089" fill-rule="evenodd" d="M9.667 12.333h2.666V9.667H9.667zm-6 0h2.666V9.667H3.667zm6-6h2.666V3.667H9.667zm-6 0h2.666V3.667H3.667zm5.195 6.805a.67.67 0 0 0 .471.195h3.334a.667.667 0 0 0 .666-.666V9.333a.667.667 0 0 0-.666-.666H9.333a.666.666 0 0 0-.666.666v3.334c0 .176.07.346.195.471m-6 0a.67.67 0 0 0 .471.195h3.334a.667.667 0 0 0 .666-.666V9.333a.667.667 0 0 0-.666-.666H3.333a.666.666 0 0 0-.666.666v3.334c0 .176.07.346.195.471m6-6a.67.67 0 0 0 .471.195h3.334a.666.666 0 0 0 .666-.666V3.333a.667.667 0 0 0-.666-.666H9.333a.666.666 0 0 0-.666.666v3.334c0 .176.07.346.195.471m-6 0a.67.67 0 0 0 .471.195h3.334a.666.666 0 0 0 .666-.666V3.333a.667.667 0 0 0-.666-.666H3.333a.666.666 0 0 0-.666.666v3.334c0 .176.07.346.195.471" clip-rule="evenodd"/></svg>
